X: 1
T: Struan Robertson's Rant
O: Trad
R: strathspey
Z: 1997 by John Chambers -<jc:trillian.mit.edu>
M: C
L: 1/8
K: EDor
|: e \
| "Em"E-<E G>A B>A B-<d | "D"D-<D F>E D/E/F/G/ A-<F \
| "Em"E-<E G>A B>A B-<e | "D"d>B d>F "Em"E-<E E :|
|: g \
| "Em"e>f g>e b>e g>e | "D"f>e d>f a/g/f/e/ d-<f \
| "Em"e>f g>e b>e g>e | "D"d>B A>F "Em"E-<E E :|
|: F \
| "Em"G>B E>B G-<B E>G | "D"F>A D>A F-<A D>A \
| "Em"G>B E>B G-<B E>g | "D"f>d a>f "Em" e2- e :|
|: f \
| "Em"g-<b e>b g>e b>g | "D"f-<a d>a f-<a d>a \
| "Em"g-<b e>g "D"f-<a d>e | "Bm"d/c/B/A/ d>F "Em"E-<E E :|

%%center Book02/RobertsonRant-JC.abc
% Special medley for 80-bar Robertson Rant:

%%sep 1 1 500
%%sep 1 1 500

